X: 1254
T: Kimden Ahzettin ki
C: Ahmet Avni Konuk
O: Turkey
F: http://compmusic.upf.edu/node/140
N: mustear--kupe--darb--kimden--ahmet_avni_konuk
N: makam= mustear
N: form= kupe
N: usul= darb = 6/4
M: 6/4
L: 1/16
K: C _1/4B _1/4e ^f 
Q: 1/4=84
%%MIDI tuningsystem comma53
^3/4c6e2 d12 d2e2  | =f3e d2^3/4c2 d12 z4  | \
w:  Kim *  den   |  ahz_ *  *  *  et  | 
^3/4c2d2 e2^3/4f2 g4 =f4 e4 d4  | \
w:  tin  *  *  *  ki   | 
d4 d2^3/4c2 B3^3/4A B2c2 B2A2 B4  | 
w:  ol *  *  dun   | 
B8 dcde d2c2 B2^3/4A2 B4  | ^3/4c2d2 e2d2 c4 d8-d2z2  | \
w:  böy le   |  bi *  *  *  gâ  | 
d8 e4 g4 =f4 e4  | 
w:  ne  e  | 
e2d2 d2^3/4c2 d14z2  | e2d2 ^3/4c2d2 e4 e2=f2 e2f2 e2d2  | \
w:  dâ    |  Öy *  *  *  le   | 
g4 =f2e2 e2d2 {e}d2^3/4c2 d6z2  | 
w:  tavr_ *  *  ı   | 
^3/4c2d2 e2^2/4f2 g4 =f4 e4 d4  | \
w:  Müs *  *  *  te  | 
d4 {e}d2^3/4c2 B3^3/4A B2=c2 B2A2 B4  | \
w:  ar  *  *  *  ey   | 
B8 dcde d2c2 B2^3/4A2 B4  | 
w:  şûh   | 
d^3/4cde d2c2 B3^3/4A B2c2 B2A2 B4  | \
w:  lâ *  *  *  *  *  yık   | 
B8 c8 c2d2 c2B2  | B3^3/4A G2A2 B14z2  | 
w:  mı  sa  |  na    | 
|


